public/build/img/create-icon.svg

<svg width="32" height="32" viewBox="0 0 32 32" fill="none" xmlns="http://www.w3.org/2000/svg">
<path d="M5.33335 29.3333H21.3334V26.6667H5.33335V10.6667H2.66669V26.6667C2.66669 28.1373 3.86269 29.3333 5.33335 29.3333Z" fill="white"/>
<path d="M26.6667 2.66666H10.6667C9.196 2.66666 8 3.86266 8 5.33332V21.3333C8 22.804 9.196 24 10.6667 24H26.6667C28.1373 24 29.3333 22.804 29.3333 21.3333V5.33332C29.3333 3.86266 28.1373 2.66666 26.6667 2.66666ZM24 14.6667H20V18.6667H17.3333V14.6667H13.3333V12H17.3333V7.99999H20V12H24V14.6667Z" fill="white"/>
</svg>

<svg width="32" height="32" fill="none" xmlns="http://www.w3.org/2000/svg"><path d="M5.333 29.333h16v-2.666h-16v-16H2.667v16a2.67 2.67 0 002.666 2.666z" fill="#fff"/><path d="M26.667 2.667h-16A2.67 2.67 0 008 5.333v16A2.67 2.67 0 0010.667 24h16a2.67 2.67 0 002.666-2.667v-16a2.67 2.67 0 00-2.666-2.666zm-2.667 12h-4v4h-2.667v-4h-4V12h4V8H20v4h4v2.667z" fill="#fff"/></svg>
